X:1
T:3
T:2
%%score [ ( 1 2 ) ( 3 4 ) ( 5 6 ) ( 7 8 ) ]
L:1/8
M:4/4
K:C
V:1 treble transpose=-2 nm="Bb Trumpet" snm="Bb Tpt."
V:2 treble transpose=-2 
V:3 treble transpose=-2 nm="Bb Trumpet" snm="Bb Tpt."
V:4 treble transpose=-2 
V:5 treble transpose=-7 nm="Horn" snm="Hn."
V:6 treble transpose=-7 
V:7 bass nm="C Tuba" snm="C Tu."
V:8 bass 
V:1
[K:D] (eBef ^dBde | cBBA A^GFB) | (eBef ^dBde |!>(! cBBA A^GF!>)!B) | x4 x2 x2 | x4 x x x x | %6
 z4 x2 x2 | x8 | ^g4{ag} a4 |{a^g} f2 a2{ag} g4 | x2 x2 a4 |{a^g} f2 a2{ba} g4 | %12
 x2!<(! c'2 [cc']2!<)! [^d^d']2 |!>(! [^d^d'Bb]3!>)! z4 x | %14
 z2!<(! [cc']2 [cc']2!<)!{^d'c'} [^dd']2 |!>(! [^d^d'Bb]3!>)! z4 x | C4 E4 | ^D4 E4 | %18
!<(! ^G2 B2!<)! [Ec]4 | B3 z B4 | z ^g c'b g2 gf | f3 ^g c2 c^d | e3 f (e^dc[B^g]) | %23
 [f^ab]3 z af^g x | ^a/b/a/b/ a/b/a/b/ ^G/4^A/4B/4c/4^d/4^e/4f/4^g/4 a/4 z/4 z/ z | %25
 (b/e/B/e/ b/e/B/e/ b/e/B/e/ b/e/B/e/ | a2 ^g2 e2 e2) | ([^Ge]4 [Ae]4 | fB- B2 B4) | %29
 z2 ([e^g]2 [eag]3 z | [Af]^gag g4) | z2!<(! ([cc']2 [cc']2!<)! [^d^d']2 |!>(! ^d'3 b!>)! [e^g]4) | %33
 z2!<(! ([cc']2 [cc']2!<)! [^d^d']2 | [^d^d']2!>(! [cc'][Bb]!>)! [^Ge^g]4) | !>![Gg]8 | %36
!ff! [Be]b/b/ [Beb]6 | [^A^a]4 (3:2:1[=A=a]2 x3/4 (3:2:1[Ff]2 x3/4 z4/3 x3/4 | %38
 z2 [Bb]2 (3:2:1[^A^a]2 x3/4 (3:2:1[Gg]2 x3/4 z4/3 x3/4 | [^g-D=F]4 [D=FBbx^A^ax]213/40 x17/64 | %40
 g4- (3g2 c'2 ^a2 |!mf! =f/e/d/e/ f/e/d/e/ f/e/d/e/ f/e/d/e/ | %42
 =f/e/d/e/ f/e/d/e/ f/e/d/e/ f/e/d/e/ | b4 b4 |!<(! a8 | b4 c'4!<)! | %46
!ff! ([ff'][cc'][ff'][^g^g'] [^e^e'][cc'][ee'][ff'] | [^d^d'][cc'][cc'][Bb] [Bb][^A^a][^G^g][Ff]) | %48
 ([ff'][cc'][ff'][^g^g'] [^e^e'][cc'][ee'][ff'] | [^d^d'][cc'][cc'][Bb] [Bb][^A^a][^G^g][Ff]) | %50
 x F ^AF z F BF | [^G^e^g^a]3 z2 ^E2 x | [^A,^DFFf^A^acc']8 | [^G^g^A^a]3 z4 x x | %54
 [^DF^A^d]/A/d/f/ ^d'/^a/c'/^e/ [fa]/f/d/f/ a/f/^g/c/ | [^gg]3 [^A^a] [^G^B^d]2 d^e | %56
!<(! [F^df^G^g]3 z ^ede x | [^df]6 z!<)! [^e^e'] | %58
!ff! [ff']2 ([^B^dff'][^g^g'] [ff'][^e^e'][d^d'][cc']) | [^B^g^d']8!<(!!<)! | %60
"^Simple"!mp! ([cc']8 |!>(! ^dcc"^molto dim."B B^A^GF | B,^A,^G,F,-)!>)! !fermata!F,4 |] %63
V:2
[K:D] x8 | x8 | x8 | x8 | (eBef ^dBde | BBBA cBFE) | (eBef ^dBde | BBBA A^GFB) | x8 | x2 x2 x4 | %10
 z2 ^g2 x4 | x8 | x8 | x8 | x8 | x8 | x8 | x8 | x8 | x8 | z x7 | x8 | x8 | x8 | x8 | x8 | %26
 a/e/B/e/ ^g/e/B/e/4e/4 e/B/E/B/ e/B/E/B,/ | x8 | x8 | x8 | x8 | x8 | ^d4 z4 | x8 | x8 | x8 | x8 | %37
 x41/4 | x41/4 | x45/32 B,8 x7/40 | x8 | x8 | x8 | =f/e/d/e/ f/e/d/e/ f/e/d/e/ f/e/d/e/ | %44
 =f/e/d/e/ f/e/d/e/ f/e/d/e/ f/e/d/e/ | =fede edef | x8 | x8 | x8 | x8 | x x7 | x8 | F,8 | %53
 ^g/^e/c/^G/ c/^e/^a/f/ a/f/c/^A/ c/f/a/f/ x | ^D2 ^dc ^A2 A^G | %55
 ^G/^e/c/G/ c/e/e/c/ ^D/G/D/G/ D/^B/^E/c/ | x8 | B2 f^g f^e^dc | z2 ^G6 | ^BC^D^E F^G^AB | %60
 fcf^g ^ecef | x8 | x8 |] %63
V:3
[K:D] !>!E3 z EB, z2 | !>!E3 z EE z2 | e8 | e8 | z2 z2 z2 B2 | ^G4 e z AA | e4 z2 B2 | ^G8 | %8
 e4 B z B z | A2 c2 B4 | B2 B2 c4 | B2 c2 E4 | B8 |!>(! A3 B!>)! E4 | C8 | z4 E4 | ^G4 A,4 | %17
 B,4 B,2 B,2 | C2 A,2 A,EAE | z F BB E2 ^D2 | [^Gc]4 B2 B2 | ^d2 z2 z4 | B3 z z4 | F8 | %24
 z4 z2 ^A/4B/4c/4^d/4^e/4f/4^g/4^a/4 | E8 | E8 | B4 c4 | c2 B2 B,4 | z2 B2 c3 ^G | ^d z z2 ^G4 | %31
 z2 C2 C4 | f4 B4 | E8 | z2 e^d B4 | !>!^d8 | B^d/B/ G6 | e4 (3^d2 ^B2 A2 x2 | %38
 E2 B2 (3^A2 G2 E2 x2 | B8 x3/2 | ^G4- (3G2 c2 ^A2 | [BbB-b-]6 z2 | [Bb]4 [Bb]4 | ^d4 d4 | %44
 E2 EE EEEE | B4 c4 | !>!F3 z FF z2 | !>!c3 z FF z2 | !>!F3 z FF z2 | !>!c3 z FF z2 | %50
 (F/^D/F/^A/ ^d/A/F/D/) (B,/F/B/c/ d/B/F/D/) | C/^E/^G/c/ G/E/F/C/ F/C/F/C/ E/C/E/C/ | %52
 ^D/^A,/D/A,/ D/A,/F/A,/ [FB]/F/B/F/ ^d/F/B/F/ | c/^G/c/G/ ^e/G/c/G/ F/C/F/C/ ^A/C/F/C/ | %54
 ([^D,^D]/^A,/D/F/ ^A^d) (B,FBF) | (C^Gc[CGc]) ([^G,G]^DGD) | (B,/F/B/c/ ^dd f^ed[cc']) | %57
 !>![^GB^df] z d^g bgdc | z2 [^G^B^d]6 | [^B^g^d']8 | z8 | z8 | z8 |] %63
V:4
[K:D] x8 | x8 | x8 | x8 | x8 | x8 | x8 | x8 | x8 | x2 x2 x2 x2 | x8 | x8 | x8 | x8 | x8 | x8 | x8 | %17
 x8 | x8 | x8 | E4 x4 | x2 z2 z4 | x3 z z4 | x8 | x8 | x8 | x8 | x8 | x8 | x8 | x8 | x8 | x8 | x8 | %34
 x8 | x8 | x8 | x10 | x10 | x19/2 | x8 | x8 | x8 | x8 | x8 | x8 | x8 | x8 | x8 | x8 | x8 | x8 | %52
 x8 | C4 F,4 | x8 | x8 | x8 | x8 | x8 | x8 | x8 | x8 | x8 |] %63
V:5
[K:G] A z A z A z A z | A z A z A z A z | A z A z A z A z | A z A z A z A z | A z A z A z A z | %5
 z2 A z (d^cBA) | e z e z A z A z | e4 e2 e2 | ^c4 f4 | e4 e4 | A2 ^c2 d4 | A2 e2 (ABA^G) | A8 | %13
!>(! B B2 B!>)! E4 | D2 F2 A2 d2 | (EBf^g) e4 |!mf! A4 ^c4 | B3 ^c c4 | z2 (A2 ^c2 e2) | B3 ^c c4 | %20
 a^g g2 g2 z2 | e2 B2 ^d4 | f3 ^g fed^c | f4 fB f2 | z4 ^d/e/d/e/ z2 | f8 | f8 | ^c4 d4 | %28
 B2 d^c c4 | z2 ^c2 d3 z | B z d^c e4 | A8 | B2 B^c e A3 | z2 A2 A2 e2 | e3 F A4 | !>!e8 | %36
 A2 AA AAAA | A2 AA AAAA x2 | A2 AA AAAA x2 | _B2 BB BBBB x3/2 | A2 AA AAAA | A2 AA AAAA | %42
 A2 AA AAAA | ^B4 B4 | d8 | A2 AA AAAA | B3 B f4 | !tenuto!B8 | B,3 F/B/ f4 | %49
 B3- [B,B-] [B,Bb]2 B-B/F/ | [B^d^gb]4 [Begb]4 | f3 ^d f2 F2 | x8 | [^c^c'^d^d']3 z4 x | %54
 ^G2 ^gf ^d2 d^c | ^c3 [^D^d] ^G2 G^A | ^g3 ^c e^aga | z8 | z2 [^c^e^g]6 | [^E^c^g]8 | z8 | z8 | %62
 z8 |] %63
V:6
[K:G] x8 | x8 | x8 | x8 | x8 | x8 | x8 | x8 | x8 | x8 | x2 x2 x4 | x8 | x8 | x8 | x8 | x8 | x8 | %17
 x8 | x8 | x8 | x2 x4 x2 | x8 | x8 | x8 | x8 | x8 | x8 | x8 | x8 | x8 | x8 | x8 | x8 | x8 | x8 | %35
 x8 | x8 | x10 | x10 | x19/2 | x8 | x8 | x8 | x8 | x8 | x8 | x8 | x8 | x8 | x8 | x8 | x8 | B,8 | %53
 x8 | x8 | x8 | x8 | x8 | x8 | x8 | x8 | x8 | x8 |] %63
V:7
 !>!D,,3 (D,,/A,,/ D,4) | D,,3 (D,,/A,,/ D,4) | D,,3 (D,,/A,,/ D,4) | !>!D,,3 (D,,/A,,/ D,4) | %4
 !>!D,,3 (D,,/A,,/ D,4) | !>!D,,3 (D,,/A,,/ D,4) | !>!D,,3 (D,,/A,,/ D,4) | %7
 !>!D,,3 (D,,/A,,/ D,4) |!mf! D,,3 (D,,/A,,/ D,4) | x8 | D,,D,, A,,2 D,4 | D,,8 | %12
!<(! D,,3 (D,,/A,,/ D,2)!<)! D,2 |!>(! A,, A,2 A,,!>)! [D,,D,]4 | G,,2 D,2 G,,2 D,2 | %15
!>(! A,,4!>)! D,,4 |!mp! z2 B,,,2- B,,,2 G,,,2- | G,,,2 A,,,2 D,,2 ^C,,2 | B,,,4 G,,,4 | %19
 A,,3 A,, A,,4 | (B,,^F,D^C) (^F,,^C,A,F,) | (A,,E,A,E,) (E,,B,,E,B,,) | [G,,G,]D,B,D, B,D,B,D, | %23
 z B,, G,2- G,4 | !///-!E,,/ x/ E,/ x/ [E,,E,]6 |!f! z2 !tenuto![D,D]2 !tenuto![^C,^CA,,A,]3 z | %26
 !tenuto![B,,B,A,,A,]3 z4 x x | [D,,D,]2 (D,,/A,,/D,/A,,/) [D,B,D]4 | A,2 E,2 D,4 | %29
 [D,,D,]2 (D,,/A,,/D,/A,,/) [B,,B,D]4 | [D,A,-][A,,-A,] [A,,E,A,]2 [D,,A,,D,]4 | z2 D,2 D,4 | %32
 [A,,E,]4 D,,4 | x2 B,2 B,2 A,2 | [A,,E,A,]3 z4 x | !>![F,,F,]8 |!mp! D,,2 D,,D,, D,,D,,D,,D,, | %37
 D,,2 D,,D,, D,,D,,D,,D,, x2 | D,,2 D,,D,, D,,D,,D,,D,, x2 | D,,2 D,,D,, D,,D,,D,,D,, x3/2 | %40
 D,,2 D,,D,, D,,D,,D,,D,, | D,,2 D,,D,, D,,D,,D,,D,, | D,,2 D,,D,, D,,D,,D,,D,, | %43
 A,,2 D,,D,, D,,D,,D,,D,, | D,,2 D,,D,, D,,D,,D,,D,, | D,,2 D,,D,, D,,D,,D,,D,, | [B,,,-E,]8 | %47
 !tenuto![B,,,B,,]8 | [B,,,-E,,]3 B,,/E,/ [E,B,]4 | [B,,,EB]3 [EBE,xE]5 x2 | %50
 (E,,/^C,,/E,,/^G,,/ ^C,/G,,/E,,/C,,/) (A,,,/E,,/A,,/B,,/ C,/A,,/E,,/C,,/) | %51
 B,,/^D,/^F,/B,/ F,/D,/E,/B,,/ E,/B,,/E,/B,,/ D,/B,,/D,/B,,/ | %52
 ^C,/^G,,/C,/G,,/ C,/G,,/E,/G,,/ [E,A,]/E,/A,/E,/ ^C/E,/A,/E,/ | %53
 B,/^F,/B,/F,/ ^D/F,/B,/F,/ E,/B,,/E,/B,,/ ^G,/B,,/E,/B,,/ | %54
 ([^C,,^C,]/^G,,/C,/E,/ ^G,^C) (A,,E,A,E,) | (B,,^F,B,[B,,F,B,]) ([^F,,F,]^C,F,C,) | %56
 (A,,/E,/A,/B,/ ^CC E^DC[B,B]) | [A,^CE]^F,,- [F,,C]^F AFCB, | [A,,^F,,^F,F,,F,F,,F,F,,F,]8 | %59
!<(! [^F,,,^C,,^F,,F,,,F,,]3 z [F,,,F,,] !///-!F,,,/!<)! x/ F,,/ x3/2 | [E,,E,]8- | [E,,E,]8 | %62
 (A,,^G,,^F,,!p!E,,-) !tenuto!!fermata![E,,,E,,]4 |] %63
V:8
 x8 | x8 | x8 | x8 | x8 | x8 | x8 | x8 | x8 | D,4 D,,4 | x8 | x8 | x8 | x8 | x8 | x8 | z2 x6 | %17
 x2 x6 | x8 | x8 | x8 | x8 | x8 | z x7 | x8 | x8 | z8 x | x8 | E,,A,,- A,,2 D,,4 | x8 | x8 | %31
 !>!G,,,8 | x8 | !>!G,,8 | x8 | x8 | x8 | x10 | x10 | x19/2 | x8 | x8 | x8 | x8 | x8 | x8 | %46
 !>!E,,,8- | [E,,,D,,E,,D,,E,,]6 x2 | !>!E,,,8- | [E,,,E,,]3 E,,2 z E,/B,,/ x3 | x8 | %51
 B,,,4 E,,2 ^D,,2 | ^C,,4 A,,4 | B,,4 E,,4 | x8 | x8 | A,,4 A,,4 | !>!^F,,!>!^F,,,- F,,,6 | %58
 !>!!tenuto!A,,,8 | x8 | x8 | x8 | x8 |] %63

